icon-themes/sifr_svg/cmd/lc_linearrows.svg

<svg viewBox="0 0 24 24" xmlns="http://www.w3.org/2000/svg"><path d="m7 8c-.30945 0-.55232.0903-.75.28125l-4.25 3.71875c1.41667 1.073 2.83333 2.64575 4.25 3.71875.19768.19095.44055.28125.75.28125h.5859375.4140625v-1c0-.25689-.12983-.52846-.3125-.71875l-1.5097656-1.28125h11.6445316l-1.509766 1.28125c-.18267.19029-.3125.46186-.3125.71875v1h.414062.585938c.30945 0 .55232-.0903.75-.28125 1.41667-1.073 2.83333-2.64575 4.25-3.71875l-4.25-3.71875c-.19768-.19095-.44055-.28125-.75-.28125h-.585938-.414062v1c0 .25689.12983.52846.3125.71875l1.509766 1.28125h-11.6445316l1.5097656-1.28125c.18267-.19029.3125-.46186.3125-.71875v-1h-.4140625z" fill="#555753"/></svg>

<svg xmlns="http://www.w3.org/2000/svg" viewBox="0 0 24 24">
 <path
     style="fill:#555753"
     d="M 7 8 C 6.69055 8 6.44768 8.0903 6.25 8.28125 L 2 12 C 3.41667 13.073 4.83333 14.64575 6.25 15.71875 C 6.44768 15.9097 6.69055 16 7 16 L 7.5859375 16 L 8 16 L 8 15 C 8 14.74311 7.87017 14.47154 7.6875 14.28125 L 6.1777344 13 L 17.822266 13 L 16.3125 14.28125 C 16.12983 14.47154 16 14.74311 16 15 L 16 16 L 16.414062 16 L 17 16 C 17.30945 16 17.55232 15.9097 17.75 15.71875 C 19.16667 14.64575 20.58333 13.073 22 12 L 17.75 8.28125 C 17.55232 8.0903 17.30945 8 17 8 L 16.414062 8 L 16 8 L 16 9 C 16 9.25689 16.12983 9.52846 16.3125 9.71875 L 17.822266 11 L 6.1777344 11 L 7.6875 9.71875 C 7.87017 9.52846 8 9.25689 8 9 L 8 8 L 7.5859375 8 L 7 8 z "
     />
 </svg>
